src/assets/filled/LampCharge.svg

<svg width="24" height="24" viewBox="0 0 24 24"  xmlns="http://www.w3.org/2000/svg">
<path d="M15.2599 22.0004C15.1999 22.0004 15.1299 21.9904 15.0699 21.9704C13.0599 21.4004 10.9499 21.4004 8.93991 21.9704C8.56991 22.0704 8.17991 21.8604 8.07991 21.4904C7.96991 21.1204 8.18991 20.7304 8.55991 20.6304C10.8199 19.9904 13.1999 19.9904 15.4599 20.6304C15.8299 20.7404 16.0499 21.1204 15.9399 21.4904C15.8399 21.8004 15.5599 22.0004 15.2599 22.0004Z" />
<path d="M19.21 6.35952C18.17 4.25952 16.16 2.70952 13.83 2.19952C11.39 1.65952 8.88997 2.23952 6.97997 3.77952C5.05997 5.30952 3.96997 7.59952 3.96997 10.0495C3.96997 12.6395 5.51997 15.3495 7.85997 16.9195V17.7495C7.84997 18.0295 7.83997 18.4595 8.17997 18.8095C8.52997 19.1695 9.04997 19.2095 9.45997 19.2095H14.59C15.13 19.2095 15.54 19.0595 15.82 18.7795C16.2 18.3895 16.19 17.8895 16.18 17.6195V16.9195C19.28 14.8295 21.23 10.4195 19.21 6.35952ZM13.72 11.6195L12.65 13.4795C12.51 13.7195 12.26 13.8595 12 13.8595C11.87 13.8595 11.74 13.8295 11.63 13.7595C11.27 13.5495 11.15 13.0895 11.35 12.7395L12.2 11.2595H11.36C10.86 11.2595 10.45 11.0395 10.23 10.6695C10.01 10.2895 10.03 9.82952 10.28 9.38952L11.35 7.52952C11.56 7.16952 12.02 7.04952 12.37 7.24952C12.73 7.45952 12.85 7.91952 12.65 8.26952L11.8 9.74952H12.64C13.14 9.74952 13.55 9.96952 13.77 10.3395C13.99 10.7195 13.97 11.1895 13.72 11.6195Z" />
</svg>

<?xml version="1.0" encoding="UTF-8"?>
<svg width="24" height="24" viewBox="0 0 24 24" xmlns="http://www.w3.org/2000/svg">
 <path d="m15.26 22c-0.06 0-0.13-0.01-0.19-0.03-2.01-0.57-4.12-0.57-6.13 0-0.37 0.1-0.76-0.11-0.86-0.48-0.11-0.37 0.11-0.76 0.48-0.86 2.26-0.64 4.64-0.64 6.9 0 0.37 0.11 0.59 0.49 0.48 0.86-0.1 0.31-0.38 0.51-0.68 0.51z"/>
 <path d="m19.21 6.3595c-1.04-2.1-3.05-3.65-5.38-4.16-2.44-0.54-4.94 0.04-6.85 1.58-1.92 1.53-3.01 3.82-3.01 6.27 0 2.59 1.55 5.3 3.89 6.87v0.83c-0.01 0.28-0.02 0.71 0.32 1.06 0.35 0.36 0.87 0.4 1.28 0.4h5.13c0.54 0 0.95-0.15 1.23-0.43 0.38-0.39 0.37-0.89 0.36-1.16v-0.7c3.1-2.09 5.05-6.5 3.03-10.56zm-5.49 5.26-1.07 1.86c-0.14 0.24-0.39 0.38-0.65 0.38-0.13 0-0.26-0.03-0.37-0.1-0.36-0.21-0.48-0.67-0.28-1.02l0.85-1.48h-0.84c-0.5 0-0.91-0.22-1.13-0.59-0.22-0.38-0.2-0.83998 0.05-1.28l1.07-1.86c0.21-0.36 0.67-0.48 1.02-0.28 0.36 0.21 0.48 0.67 0.28 1.02l-0.85 1.48h0.84c0.5 0 0.91 0.22 1.13 0.58998 0.22 0.38 0.2 0.85-0.05 1.28z"/>
</svg>
